X:1
T:What Are You Doing New Year's Eve?
T:What Are You Doing New Years Eve?
C:Frank Henry Loesser
Z:All Rights Reserved
L:1/8
M:4/4
K:F
V:1 treble nm="Piano" snm="Pno."
%%MIDI program 0
V:1
|:"F" z2 (3A^GA C A3 |"Eb7" =GF (3GAG- G4 |"F" z2 (3c=Bc"F7" F c3 |"Bb" _BA (3BcB-"Bbm" B4 | %4
w: May- be it's much too|ear- ly in the game, _|ah, but I thought I'd|ask you just the same. _|
"F" z2 (3A^GA"Dm7" C A3 |"G7" =G4 D4 |"C7" E4 d4 |"F""Gm7""Gb9" c8 |"F" z2 (3A^GA C A3 | %9
w: What are you do- ing|New Year's,|New Year's|Eve?|Won- der whose arms will|
"Eb7" =GF (3GAG- G4 |"F" z2 (3c=Bc"F7" F c3 |"Bb" _BA (3BcB-"Bbm" B4 |"F" z2 (3A^GA"Dm7" C A3 | %13
w: hold you good and tight _|when it's ex- act- ly|twelve- o- clock that night, _|wel- com- ing in the|
"G7" =G4 D4 |"C7" E4"C7b9" A4 |"F" F4"E7b9" z4 |]"Am7" z2 (3EFE A E3 |"Bm7b5" D2 D2"Bb7" F4 | %18
w: New Year's,|New Year's|Eve.|May- be I'm cra- zy|to sup- pose|
"Am7" z2 (3EFE A E3 |"Bm7b5" D2 D2"Bb9" F4 |"Am" z2 (3EFE"F#m7b5" c A3 |"Fmaj7" z E2 E"D9" c A3 | %22
w: I'd ev- er be the|one you chose|out of the thous- and|in- vi- ta- tions|
"G7" G4"G9" d4 |"C7""C9#5" c8 |]"F" z2 (3A^GA C A3 |"Eb7" =GF (3GAG- G4 |"F" z2 (3c=Bc"F7" F c3 | %27
w: you'll re-|ceive.|Oh, but in case I|stand one lit- tle chance, _|here comes the jack- pot|
"Bb" _BA (3BcB-"Bbm" B4 |"F" z2 (3A^GA"Dm7" C A3 |"G7" =G4 D4 |"C7" E4 A4 |1 %31
w: ques- tion in ad- vance: _|What are you do- ing|New Year's|New Year's|
"F""Fdim""Gm7b5""C7" F4 z4 :|2"F" F6 z2 |] %33
w: Eve?|eVE?|

